X: 1
T: Happy Birthday
M: 6/8
L: 1/8
R: jig
K: Gmaj
|DED ~G3|GAG ~F3|DED AGA|cAF G2 E|
|DED ~d3|BAG FGE|cBc BAG|AGF G3|
